X:41
T:Polska efter Soldat Lind (EÖ41)
B:EÖ, nr 41
S:efter Soldat Lind
O:Bohuslän
R:Polska
Z:Nils L
M:2/4
L:1/16
K:D
a2ag b2af | a2ge f2df | a2ag b2bg | a2ge f2>e2 ||
d2ef g2ef | f2df e2ce | d2ef g2eg | f2df e2cc | d4 D4 :|

